static/logos/linkedin-wordmark-color.svg

<svg width="100" height="26" viewBox="0 0 100 26" fill="none" xmlns="http://www.w3.org/2000/svg">
<g clip-path="url(#clip0_1_2170)">
<path d="M96.1266 21.564H92.3766V15.6914C92.3766 14.291 92.3516 12.4882 90.4262 12.4882C88.473 12.4882 88.1742 14.014 88.1742 15.5894V21.5636H84.4242V9.48708H88.0242V11.1375H88.0746C88.4348 10.5215 88.9555 10.0147 89.5809 9.67122C90.2066 9.32766 90.9133 9.16024 91.6266 9.18669C95.4273 9.18669 96.1281 11.6867 96.1281 14.939L96.1266 21.564ZM80.193 7.8363C79.7625 7.83637 79.3418 7.70884 78.984 7.46977C78.6258 7.23071 78.3469 6.89091 78.182 6.49329C78.0176 6.09567 77.9742 5.65813 78.0582 5.23598C78.1422 4.81384 78.3492 4.42602 78.6535 4.12161C78.9578 3.81723 79.3457 3.6099 79.7676 3.52586C80.1898 3.44181 80.6273 3.48483 81.025 3.64946C81.4227 3.8141 81.7625 4.09298 82.002 4.45079C82.241 4.8086 82.3687 5.22934 82.3687 5.65973C82.3687 5.94552 82.3125 6.22852 82.2031 6.49255C82.0938 6.75661 81.9336 6.99653 81.7316 7.19864C81.5297 7.40075 81.2898 7.5611 81.0258 7.67052C80.7617 7.77993 80.4789 7.83626 80.193 7.8363ZM82.068 21.564H78.3141V9.48708H82.068V21.564ZM97.9961 0.00154055H76.4297C75.9402 -0.00398342 75.4684 0.185054 75.1184 0.527113C74.768 0.869172 74.568 1.33627 74.5621 1.82576V23.4816C74.568 23.9713 74.768 24.4388 75.118 24.7812C75.4684 25.1236 75.9398 25.313 76.4297 25.3078H97.9961C98.4867 25.314 98.9598 25.1251 99.3113 24.7827C99.6629 24.4403 99.8645 23.9723 99.8711 23.4816V1.8242C99.8641 1.33373 99.6625 0.866109 99.3109 0.524058C98.9594 0.182007 98.4867 -0.00649057 97.9961 -2.19534e-05V0.00154055ZM64.3555 12.4019C62.4805 12.4019 61.3555 13.6539 61.3555 15.4781C61.3555 17.3023 62.4801 18.5554 64.3555 18.5554C66.2309 18.5554 67.3582 17.3054 67.3582 15.4781C67.3582 13.6508 66.2328 12.4019 64.3555 12.4019ZM70.8105 21.557H67.3582V19.9554H67.307C66.8738 20.538 66.3121 21.0127 65.6656 21.3425C65.0188 21.6724 64.3047 21.8484 63.5789 21.857C59.9758 21.857 57.6023 19.2566 57.6023 15.5793C57.6023 12.2019 59.7027 9.10075 63.1555 9.10075C64.7074 9.10075 66.157 9.52536 67.0074 10.7023H67.0566V3.74099H70.8102L70.8105 21.557ZM52.7875 14.1164C52.7945 13.8122 52.7398 13.5096 52.627 13.2271C52.5137 12.9447 52.3441 12.6881 52.1289 12.4729C51.9137 12.2578 51.657 12.0887 51.3746 11.9757C51.0918 11.8627 50.7895 11.8082 50.4852 11.8156C49.8301 11.7749 49.1848 11.9932 48.6891 12.4236C48.1934 12.854 47.8867 13.4619 47.8352 14.1164H52.7875ZM55.9641 19.4679C55.341 20.2236 54.5574 20.8312 53.6707 21.2468C52.7836 21.6624 51.8152 21.8755 50.8359 21.8707C47.0859 21.8707 44.0836 19.3675 44.0836 15.4914C44.0836 11.6152 47.0855 9.11325 50.8359 9.11325C54.341 9.11325 56.5391 11.6133 56.5391 15.4914V16.6672H47.8352C47.9434 17.334 48.2891 17.9392 48.8086 18.3713C49.3277 18.8033 49.9859 19.0331 50.6613 19.0183C51.1949 19.015 51.7195 18.8783 52.1871 18.6205C52.6543 18.3628 53.05 17.9922 53.3375 17.5425L55.9641 19.4679ZM18.6852 9.48395H22.2863V11.1343H22.3375C22.6972 10.5181 23.2175 10.0111 23.8429 9.66755C24.4683 9.32395 25.1752 9.15669 25.8883 9.18356C29.691 9.18356 30.391 11.6855 30.391 14.9359V21.5586H26.641V15.6871C26.641 14.2855 26.6152 12.484 24.6879 12.484C22.7387 12.484 22.4379 14.0101 22.4379 15.5851V21.557H18.6879L18.6852 9.48395ZM32.2926 3.74216H36.0426V14.3925L40.2926 9.47731H44.8902L39.9684 15.0683L44.7867 21.5644H40.0734L36.0926 15.5949H36.0434V21.5636H32.2934L32.2926 3.74216ZM12.8559 9.48278H16.6059V21.5593H12.8559V9.48278ZM14.7309 3.47888C15.1611 3.47896 15.5816 3.60661 15.9393 3.8457C16.297 4.08477 16.5758 4.42454 16.7404 4.82208C16.905 5.21958 16.948 5.65696 16.864 6.07891C16.78 6.50087 16.5728 6.88845 16.2686 7.19266C15.9643 7.49684 15.5767 7.70399 15.1547 7.7879C14.7327 7.8718 14.2954 7.82868 13.8979 7.66403C13.5004 7.49938 13.1607 7.22055 12.9217 6.86282C12.6827 6.50509 12.5551 6.0845 12.5551 5.65427C12.5551 5.36856 12.6114 5.08567 12.7207 4.82169C12.83 4.55774 12.9903 4.3179 13.1924 4.11591C13.3944 3.91391 13.6343 3.75366 13.8982 3.64436C14.1622 3.53506 14.4452 3.47883 14.7309 3.47888ZM0 3.7449H3.90352V17.9636H11.1301V21.566H0V3.7449Z" fill="#0A66C2"/>
</g>
<defs>
<clipPath id="clip0_1_2170">
<rect width="100" height="25.3906" fill="white"/>
</clipPath>
</defs>
</svg>

<svg xmlns="http://www.w3.org/2000/svg" width="246.154" height="64" fill="none" viewBox="0 0 100 26"><g clip-path="url(#a)"><path fill="#0A66C2" d="M96.127 21.564h-3.75v-5.873c0-1.4-.025-3.203-1.95-3.203-1.954 0-2.253 1.526-2.253 3.101v5.975h-3.75V9.487h3.6v1.65h.05a3.945 3.945 0 0 1 3.553-1.95c3.8 0 4.501 2.5 4.501 5.752l-.001 6.625ZM80.193 7.836a2.175 2.175 0 1 1-.001-4.35 2.175 2.175 0 0 1 .001 4.35Zm1.875 13.728h-3.754V9.487h3.754v12.077ZM97.996.002H76.43a1.846 1.846 0 0 0-1.868 1.824v21.656a1.85 1.85 0 0 0 1.868 1.826h21.566a1.851 1.851 0 0 0 1.875-1.826V1.824A1.85 1.85 0 0 0 97.996 0v.002Zm-33.64 12.4c-1.875 0-3 1.252-3 3.076s1.124 3.077 3 3.077c1.875 0 3.002-1.25 3.002-3.077s-1.125-3.076-3.002-3.076Zm6.455 9.155h-3.453v-1.602h-.051a4.716 4.716 0 0 1-3.728 1.902c-3.603 0-5.977-2.6-5.977-6.278 0-3.377 2.1-6.478 5.554-6.478 1.551 0 3.001.424 3.851 1.601h.05V3.741h3.753v17.816Zm-18.024-7.44a2.259 2.259 0 0 0-.658-1.644 2.249 2.249 0 0 0-1.644-.657 2.503 2.503 0 0 0-2.65 2.3h4.953Zm3.177 5.35a6.607 6.607 0 0 1-5.128 2.404c-3.75 0-6.752-2.503-6.752-6.38 0-3.876 3.002-6.378 6.752-6.378 3.505 0 5.703 2.5 5.703 6.378v1.176h-8.704a2.8 2.8 0 0 0 2.826 2.351 3.201 3.201 0 0 0 2.676-1.476l2.627 1.926ZM18.685 9.485h3.601v1.65h.051a3.94 3.94 0 0 1 3.551-1.95c3.803 0 4.503 2.502 4.503 5.752v6.623h-3.75v-5.872c0-1.401-.026-3.203-1.953-3.203-1.95 0-2.25 1.526-2.25 3.101v5.972h-3.75l-.003-12.073Zm13.608-5.742h3.75v10.65l4.25-4.915h4.597l-4.922 5.591 4.819 6.496h-4.714l-3.98-5.97h-.05v5.97h-3.75V3.742Zm-19.437 5.74h3.75V21.56h-3.75V9.483ZM14.73 3.48a2.175 2.175 0 1 1-.001 4.35 2.175 2.175 0 0 1 0-4.35ZM0 3.745h3.904v14.219h7.226v3.602H0V3.745Z"/></g><defs><clipPath id="a"><path fill="#fff" d="M0 0h100v25.391H0z"/></clipPath></defs></svg>
